X: 11318
T: Eagle's Whistle, The
R: waltz
M: 3/4
K: Gmajor
BA/B/ dB AG|BA/B/ dB AG|A3 BAG|A3 BAG|
BA/B/ dB AG|BA/B/ dB AB/A/|G3 BAB/A/|1 G3 G,GA:|2 G3 ABd]|
ef/e/ de gf|ef/e/ dBAG|A3 BAG|A3 BAG|
ef/e/ de gf|ef/e/ dB AB/A/|G3 BAB/A/|1 G3 ABd:|2 G3 G,GA||

